X: 12
T: Highland Laddie
T: Harmony Parts
C: Trad Schottish
L: 1/8
M: 4/4
K: Amaj
[V:1]|: E | A3B c2e2 | dcBA c3B | c2B2 B2AB | c2B2 B3E | 
[V:2]|: G | c3d e2a2 | fedc e3d | e2g2 g2ed | e2g2 g3d |
[V:3]|: B | A2Ac e2c2 | a2e2c2e2 | gfef g2b2 | gfec B2cB |
[V:4]|: B,| A,2E2C2FE | D2E2 C4 | G,2G,B,E4  | B,2E2 E3B, |
[V:1]A3B c2e2 | dcBA c3B | A2F2 F2EF | A2F2 F3 :|
[V:2]c3d e2a2 | fedc e3d | c2A2 A2AB | c2A2 A3 :|
[V:3]A2Ac e2c2 | a2e2c2e2 | cdeg f2cB | agfe f3 :|
[V:4]A,2E2C2FE | D2E2 C4 | F2A,B, C4 | F2A,2 A,3- :|
[V:1]|: e | f2a2 e3c | dcBA c3B | c2B2 B2AB | c2B2 B3 e |
[V:2]|: g | d2A2 c3e | fedc e3d | a2g2 g2fa | a2g2 g3 g | 
[V:3]|: g | d2cB AFEA | F2G2 A4 | gfef g2b2 | gfec B2cB |
[V:4]|: A,| D2DF E2D2 | E2B,2 C4 | G,2G,B,E4  | B,2E2 E3B, |
[V:1]       f2a2 e3c | dcBA c3B | A2F2 F2EF | A2F2 F3 :|
[V:2]       d2A2 c3e | fedc e3d | c2A2 A2AB | c2A2 A3 :|
[V:3]       d2cB AFEA | F2G2 A4 | cdeg f2cB | agfe f3 :|
[V:4]       D2DF E2D2 | E2B,2 C4 | F2A,B, C4 | F2A,2 A,3- :|





